src/assets/duotone/BookSquare.svg

<svg width="24" height="24" viewBox="0 0 24 24"  xmlns="http://www.w3.org/2000/svg">
<path opacity="0.4" d="M16.1898 2H7.81976C4.17976 2 2.00977 4.17 2.00977 7.81V16.18C2.00977 19.82 4.17976 21.99 7.81976 21.99H16.1898C19.8298 21.99 21.9998 19.82 21.9998 16.18V7.81C21.9998 4.17 19.8298 2 16.1898 2Z" />
<path d="M11.5001 8.09V17.25C11.5001 17.61 11.1401 17.85 10.8101 17.71C9.60012 17.19 8.0201 16.71 6.9201 16.57L6.7301 16.55C6.1201 16.47 5.62012 15.9 5.62012 15.28V7.57999C5.62012 6.81999 6.24012 6.25 7.00012 6.31C8.25012 6.41 10.1001 7.01001 11.2601 7.67001C11.4101 7.74001 11.5001 7.91 11.5001 8.09Z" />
<path d="M18.38 7.69983V15.2698C18.38 15.8898 17.88 16.4598 17.27 16.5398L17.06 16.5598C15.97 16.7098 14.4 17.1798 13.19 17.6898C12.86 17.8298 12.5 17.5898 12.5 17.2298V8.0798C12.5 7.8998 12.59 7.72983 12.75 7.63983C13.91 6.98983 15.72 6.4098 16.95 6.2998H16.99C17.76 6.3098 18.38 6.92983 18.38 7.69983Z" />
</svg>

<?xml version="1.0" encoding="UTF-8"?>
<svg width="24" height="24" viewBox="0 0 24 24" xmlns="http://www.w3.org/2000/svg">
 <path d="m16.19 2h-8.37c-3.64 0-5.81 2.17-5.81 5.81v8.37c0 3.64 2.17 5.81 5.81 5.81h8.37c3.64 0 5.81-2.17 5.81-5.81v-8.37c0-3.64-2.17-5.81-5.81-5.81z" opacity=".4"/>
 <path d="m11.5 8.09v9.16c0 0.36-0.36 0.6-0.69 0.46-1.21-0.52-2.79-1-3.89-1.14l-0.19-0.02c-0.61-0.08-1.11-0.65-1.11-1.27v-7.7c0-0.76 0.62-1.33 1.38-1.27 1.25 0.1 3.1 0.70001 4.26 1.36 0.15 0.07 0.24 0.23999 0.24 0.41999z"/>
 <path d="m18.38 7.6998v7.57c0 0.62-0.5 1.19-1.11 1.27l-0.21 0.02c-1.09 0.15-2.66 0.62-3.87 1.13-0.33 0.14-0.69-0.1-0.69-0.46v-9.15c0-0.18 0.09-0.34997 0.25-0.43997 1.16-0.65 2.97-1.23 4.2-1.34h0.04c0.77 0.01 1.39 0.63003 1.39 1.4z"/>
</svg>
